X: 1
T: Long White Bridge, The
M: 6/8
L: 1/8
R: jig
K: Bmin
|: ~F3 Bcd | ~F3 Bcd |1 cAA edc | BcA BAG :|2 cBc dBA | FBB BAB ||
|: cAA eAA | ~g3 gfe |1 fBB cBA | FBB BAB :|2 fBB cBA | FBB BAG ||
